X:413
T:
S:Efter Florsen i Burs.
R:hamburgska
O:Gotland, Burs
M:3/4
L:1/8
K:F
B|LA>ccccc|c>f a3 f|e>f g2 bc|de f2 a2|Accccc|
c>f a3 f|ef g2 bc|de f3::f|e>f Lgccc|f>g Laccc|
Lb>agfed|cB B2 A2|LA>ccccc|c>f a3 f|ef g2 bc|de f3:|

